dist/themes/blitzart.2018/images/logo.svg

<svg width="364" height="136" xmlns="http://www.w3.org/2000/svg"><title>blitzart_logo</title><path d="M0 120.576c.98.6 2.444 1.152 4.384 1.664 1.94.512 4.104.768 6.496.768 4.948 0 8.788-1.452 11.52-4.352 2.732-2.896 4.096-7.144 4.096-12.736 0-5.544-1.036-9.64-3.104-12.288-2.068-2.644-5.172-3.968-9.312-3.968-1.792 0-3.444.34-4.96 1.024-1.516.684-2.764 1.644-3.744 2.88H5.12V77.632H0v42.944zM16.864 95.04a7.27 7.27 0 0 1 2.464 2.432c.64 1.024 1.108 2.264 1.408 3.712.296 1.452.448 3.008.448 4.672 0 4.352-.864 7.552-2.592 9.6-1.728 2.048-4.044 3.072-6.944 3.072-1.236 0-2.432-.116-3.584-.352-1.152-.232-2.136-.58-2.944-1.056v-16.128c.596-2.176 1.556-3.86 2.88-5.056 1.324-1.192 3.048-1.792 5.184-1.792 1.452 0 2.676.3 3.68.896zm24.672-17.408h-5.12v38.4c0 2.604.616 4.448 1.856 5.536 1.236 1.088 2.816 1.632 4.736 1.632.896 0 1.952-.104 3.168-.32 1.216-.212 2.164-.488 2.848-.832l-.576-4.032c-.812.3-1.536.492-2.176.58-.64.08-1.24.124-1.792.124-.94 0-1.664-.32-2.176-.956-.512-.644-.768-1.708-.768-3.204V77.632zm15.36 44.8h5.12v-32h-5.12v32zM56.8 83.136c.66.64 1.504.96 2.528.96s1.896-.32 2.624-.96c.724-.64 1.088-1.452 1.088-2.432s-.364-1.824-1.088-2.528c-.728-.704-1.6-1.056-2.624-1.056s-1.868.352-2.528 1.056c-.664.704-.992 1.548-.992 2.528s.328 1.792.992 2.432zm13.216 11.776h4.992V113.6c0 3.456.532 5.92 1.6 7.392 1.064 1.472 2.9 2.208 5.504 2.208 1.576 0 3.048-.172 4.416-.512a19.542 19.542 0 0 0 3.776-1.344l-1.152-3.904a29.24 29.24 0 0 1-2.56.928c-.768.236-1.708.352-2.816.352-1.324 0-2.264-.456-2.816-1.376-.556-.912-.832-2.484-.832-4.704V94.912h8.704v-4.48h-8.704v-7.808l-5.12 1.472v6.336h-4.992v4.48zm24.956 27.52h22.784v-4.48h-17.472l2.616-2.496 14.856-20.544v-4.48H94.972v4.48h17.472l-2.688 2.688-14.784 20.352v4.48zm33.216-25.728c.6-.352 1.292-.668 2.08-.952a20.364 20.364 0 0 1 2.496-.724 28.66 28.66 0 0 1 2.56-.464 18.242 18.242 0 0 1 2.336-.164c2.476 0 4.184.472 5.12 1.408.94.94 1.408 2.584 1.408 4.928 0 1.028-.064 2.176-.192 3.456a12.622 12.622 0 0 0-1.76-.128h-1.76c-2.344 0-4.488.16-6.432.48-1.94.32-3.604.856-4.992 1.6-1.384.748-2.464 1.748-3.232 3.008-.768 1.26-1.152 2.828-1.152 4.704 0 1.408.248 2.668.736 3.776a8.526 8.526 0 0 0 2.016 2.848c.856.792 1.868 1.4 3.04 1.824 1.176.424 2.444.64 3.808.64 1.368 0 2.584-.148 3.648-.448 1.068-.296 2.008-.672 2.816-1.12a9.082 9.082 0 0 0 2.08-1.536 10.706 10.706 0 0 0 1.44-1.76h.32l1.344 4.48h3.776a21.263 21.263 0 0 1-.704-3.904 49.48 49.48 0 0 1-.192-4.48c0-2.176.064-4.48.192-6.912.128-2.432.192-4.928.192-7.488 0-1.152-.116-2.304-.352-3.456a7.962 7.962 0 0 0-1.408-3.168c-.704-.96-1.728-1.736-3.072-2.336-1.344-.596-3.124-.896-5.344-.896-2.344 0-4.596.236-6.752.704-2.152.472-4.04 1.196-5.664 2.176l1.6 3.904zm3.392 20.32c-1.064-.96-1.6-2.184-1.6-3.68 0-1.064.288-1.952.864-2.656.576-.704 1.344-1.256 2.304-1.664.96-.404 2.072-.684 3.328-.832a33.184 33.184 0 0 1 3.872-.224c.6 0 1.208.012 1.824.032.62.024 1.228.056 1.824.096v5.312c-.212.556-.544 1.132-.992 1.728a7.597 7.597 0 0 1-1.696 1.632c-.68.496-1.492.896-2.432 1.216-.936.32-2.004.48-3.2.48-1.664 0-3.028-.48-4.096-1.44zm44.736-26.592c-1.536-.428-2.924-.64-4.16-.64-1.748 0-3.188.396-4.32 1.184-1.132.792-2.1 1.908-2.912 3.36h-.256l-.96-3.904h-3.584v32h5.12v-22.4c.256-1.536.916-2.804 1.984-3.808s2.516-1.504 4.352-1.504c1.152 0 2.368.216 3.648.64l1.088-4.928zm4.544 4.48h4.992V113.6c0 3.456.532 5.92 1.6 7.392 1.068 1.472 2.9 2.208 5.504 2.208 1.576 0 3.052-.172 4.412-.512a19.487 19.487 0 0 0 3.78-1.344l-1.152-3.904c-.94.384-1.796.696-2.56.928-.768.236-1.708.352-2.816.352-1.324 0-2.26-.456-2.816-1.376-.556-.912-.832-2.484-.832-4.704V94.912h8.704v-4.48h-8.704v-7.808l-5.12 1.472v6.336h-4.992v4.48zm52.992-3.328c-1.368-.512-3.128-.96-5.28-1.344-2.156-.384-4.6-.576-7.328-.576-5.212 0-9.176 1.472-11.904 4.416-2.732 2.944-4.096 7.276-4.096 12.992 0 5.464 1.012 9.472 3.04 12.032 2.024 2.56 5.108 3.84 9.248 3.84 3.796 0 6.44-1 7.936-3.008h.256v2.048c0 2.26-.528 4.02-1.568 5.28-1.048 1.26-3.02 1.888-5.92 1.888-1.92 0-3.536-.192-4.832-.576a43.66 43.66 0 0 1-3.424-1.148l-1.728 6.588c.896.468 2.228.916 4 1.344 1.768.428 4.192.64 7.264.64 4.52 0 8.04-1.1 10.56-3.296 2.516-2.2 3.776-5.62 3.776-10.272V91.584zm-18.496 22.272c-1.024-1.62-1.536-3.988-1.536-7.104 0-3.492.596-6.048 1.792-7.648 1.192-1.6 2.856-2.4 4.992-2.4 1.96 0 3.608.28 4.928.832v14.4c-.472 1.452-1.144 2.54-2.016 3.264-.876.732-2.124 1.088-3.744 1.088-1.92 0-3.392-.808-4.416-2.432zm45.76-23.424c-1.408-.468-2.668-.704-3.776-.704-1.664 0-3.116.428-4.352 1.28-1.24.856-2.22 2.072-2.94 3.648h-.26l-.96-4.224h-6.464v32h8.32v-20.668a5.698 5.698 0 0 1 2.016-3.044c.996-.788 2.248-1.184 3.744-1.184 1.064 0 2.256.236 3.584.704l1.088-7.808zm6.784 8.064c1.192-.552 2.72-1 4.576-1.344 1.856-.34 3.616-.512 5.28-.512 2.216 0 3.648.524 4.288 1.568.64 1.052.808 2.764.512 5.152-2.816-.128-5.368-.032-7.648.288-2.284.32-4.248.896-5.888 1.728-1.644.832-2.904 1.92-3.776 3.264-.88 1.344-1.312 3-1.312 4.96 0 1.408.232 2.68.704 3.808a8.675 8.675 0 0 0 1.984 2.944c.852.832 1.876 1.472 3.072 1.92 1.192.448 2.536.672 4.032.672 2.388 0 4.34-.48 5.856-1.44 1.512-.96 2.696-2.1 3.552-3.424h.32l1.344 4.416h6.784a20.125 20.125 0 0 1-.96-4.896 61.33 61.33 0 0 1-.16-5.34 99.68 99.68 0 0 1 .224-5.604c.128-1.892.192-3.784.192-5.664 0-1.704-.184-3.24-.544-4.608-.364-1.364-.984-2.536-1.856-3.52-.876-.98-2.06-1.74-3.552-2.268-1.496-.536-3.352-.804-5.568-.804-2.56 0-5.016.224-7.36.672-2.348.448-4.376 1.056-6.08 1.824l1.984 6.208zm5.664 16.608c-.704-.66-1.056-1.588-1.056-2.784 0-.852.276-1.556.832-2.112.552-.552 1.3-.98 2.24-1.276.936-.3 2.016-.496 3.232-.58a23.035 23.035 0 0 1 3.808.064v4.16c-.472.856-1.196 1.652-2.176 2.4-.984.748-2.304 1.12-3.968 1.12-1.24 0-2.208-.328-2.912-.992zm35.424-24.672c0-1.024.064-1.94.192-2.752.128-.808.404-1.48.832-2.016.424-.532 1.02-.936 1.792-1.216.768-.276 1.768-.416 3.008-.416 1.92 0 3.668.184 5.248.544 1.576.364 2.92.844 4.032 1.44l2.176-6.464c-1.408-.808-3.256-1.44-5.536-1.888-2.284-.448-4.896-.672-7.84-.672-3.968 0-7 .928-9.088 2.784-2.092 1.856-3.136 4.812-3.136 8.864v1.792h-4.416v7.04h4.416v24.96h8.32v-24.96h9.664v24.96h8.32v-32h-17.984zm45.18 32h9.532l-8.636-14.912-3.52-2.496 3.264-2.428 7.68-12.164h-9.152l-7.296 12.736-1.92.896V77.632h-8.32v44.8h8.32v-13.248h2.24l7.808 13.248zM257.2 24.122a17.09 17.09 0 0 1 1.164 5.25c.388 6.056-2.152 12.976-7.712 19.308-5.56 6.328-20.564 16.596-28.24 18.836 1.556 6.91 1.24 9.988-.162 10.761 1.473 4.151 3.064 5.226 8.114 8.679-3.596.98-5.624-1.516-7.908-1.516-3.268-.328-5.16 2.168-8.424 1.516 4.611-2.98 7.423-3.937 7.492-8.48-4.237.237-14.332-12.084-18.524-14.072-6.152-2.916-17.12-9.74-29.628-12.556-12.504-2.804-21.324-4.968-12.74-5.296 9.7-.375 23.334-6.124 37.09-12.647-.24-.325-.518-.577-.842-.685-1.964-1.468-6.372.98-8.824 0-5.88-2.94-1.468-7.84-5.88-10.292 7.564 2.6 15.24 2.92 22.918 3.05-1.478-.906-2.724-2.012-3.846-3.338-.428-.24.82-3.472-.22-4.616-.992-2.24-6.044-2.256-7.704-4.308-3.692-5.436 2.548-7.56-.104-11.852 8.189 9.158 19.243 13.753 29.109 20.198 11.81-5.446 21.618-9.045 26.167-6.882a19.229 19.229 0 0 1 3.472 2.103c.913-4.55 2.755-9.27 3.876-13.751.652 3.92-.328 10.128 1.632 13.396 3.268 5.552 14.7 2.284 21.236 4.9-5.344.22-15.235 3.226-21.512 2.294zm-7.912-3.618l-4.132-.984c7.116-1.664 9.688 8.688 2.724 9.716-9.092 1.528-5.628-14.436 1.408-8.732zm-3.06 5.216c2.9 0 2.904-4.5 0-4.5-2.892 0-2.896 4.5 0 4.5z" fill="#003554" fill-rule="evenodd"/></svg>

<?xml version="1.0" encoding="UTF-8"?>
<svg width="364px" height="136px" viewBox="0 0 364 136" version="1.1" xmlns="http://www.w3.org/2000/svg" xmlns:xlink="http://www.w3.org/1999/xlink">
    <!-- Generator: Sketch 50.2 (55047) - http://www.bohemiancoding.com/sketch -->
    <title>blitzart_logo</title>
    <desc>Created with Sketch.</desc>
    <defs></defs>
    <g id="blitzart_logo" stroke="none" stroke-width="1" fill="none" fill-rule="evenodd">
        <path d="M0,120.576 C0.98,121.176 2.444,121.728 4.384,122.24 C6.324,122.752 8.488,123.008 10.88,123.008 C15.828,123.008 19.668,121.556 22.4,118.656 C25.132,115.76 26.496,111.512 26.496,105.92 C26.496,100.376 25.46,96.28 23.392,93.632 C21.324,90.988 18.22,89.664 14.08,89.664 C12.288,89.664 10.636,90.004 9.12,90.688 C7.604,91.372 6.356,92.332 5.376,93.568 L5.12,93.568 L5.12,77.632 L0,77.632 L0,120.576 Z M16.864,95.04 C17.868,95.64 18.688,96.448 19.328,97.472 C19.968,98.496 20.436,99.736 20.736,101.184 C21.032,102.636 21.184,104.192 21.184,105.856 C21.184,110.208 20.32,113.408 18.592,115.456 C16.864,117.504 14.548,118.528 11.648,118.528 C10.412,118.528 9.216,118.412 8.064,118.176 C6.912,117.944 5.928,117.596 5.12,117.12 L5.12,100.992 C5.716,98.816 6.676,97.132 8,95.936 C9.324,94.744 11.048,94.144 13.184,94.144 C14.636,94.144 15.86,94.444 16.864,95.04 Z M41.536,77.632 L36.416,77.632 L36.416,116.032 C36.416,118.636 37.032,120.48 38.272,121.568 C39.508,122.656 41.088,123.2 43.008,123.2 C43.904,123.2 44.96,123.096 46.176,122.88 C47.392,122.668 48.34,122.392 49.024,122.048 L48.448,118.016 C47.636,118.316 46.912,118.508 46.272,118.596 C45.632,118.676 45.032,118.72 44.48,118.72 C43.54,118.72 42.816,118.4 42.304,117.764 C41.792,117.12 41.536,116.056 41.536,114.56 L41.536,77.632 Z M56.896,122.432 L62.016,122.432 L62.016,90.432 L56.896,90.432 L56.896,122.432 Z M56.8,83.136 C57.46,83.776 58.304,84.096 59.328,84.096 C60.352,84.096 61.224,83.776 61.952,83.136 C62.676,82.496 63.04,81.684 63.04,80.704 C63.04,79.724 62.676,78.88 61.952,78.176 C61.224,77.472 60.352,77.12 59.328,77.12 C58.304,77.12 57.46,77.472 56.8,78.176 C56.136,78.88 55.808,79.724 55.808,80.704 C55.808,81.684 56.136,82.496 56.8,83.136 Z M70.016,94.912 L75.008,94.912 L75.008,113.6 C75.008,117.056 75.54,119.52 76.608,120.992 C77.672,122.464 79.508,123.2 82.112,123.2 C83.688,123.2 85.16,123.028 86.528,122.688 C87.892,122.348 89.152,121.9 90.304,121.344 L89.152,117.44 C88.212,117.824 87.36,118.136 86.592,118.368 C85.824,118.604 84.884,118.72 83.776,118.72 C82.452,118.72 81.512,118.264 80.96,117.344 C80.404,116.432 80.128,114.86 80.128,112.64 L80.128,94.912 L88.832,94.912 L88.832,90.432 L80.128,90.432 L80.128,82.624 L75.008,84.096 L75.008,90.432 L70.016,90.432 L70.016,94.912 Z M94.972,122.432 L117.756,122.432 L117.756,117.952 L100.284,117.952 L102.9,115.456 L117.756,94.912 L117.756,90.432 L94.972,90.432 L94.972,94.912 L112.444,94.912 L109.756,97.6 L94.972,117.952 L94.972,122.432 Z M128.188,96.704 C128.788,96.352 129.48,96.036 130.268,95.752 C131.06,95.464 131.892,95.224 132.764,95.028 C133.64,94.828 134.492,94.676 135.324,94.564 C136.156,94.456 136.936,94.4 137.66,94.4 C140.136,94.4 141.844,94.872 142.78,95.808 C143.72,96.748 144.188,98.392 144.188,100.736 C144.188,101.764 144.124,102.912 143.996,104.192 C143.4,104.108 142.812,104.064 142.236,104.064 L140.476,104.064 C138.132,104.064 135.988,104.224 134.044,104.544 C132.104,104.864 130.44,105.4 129.052,106.144 C127.668,106.892 126.588,107.892 125.82,109.152 C125.052,110.412 124.668,111.98 124.668,113.856 C124.668,115.264 124.916,116.524 125.404,117.632 C125.896,118.744 126.568,119.692 127.42,120.48 C128.276,121.272 129.288,121.88 130.46,122.304 C131.636,122.728 132.904,122.944 134.268,122.944 C135.636,122.944 136.852,122.796 137.916,122.496 C138.984,122.2 139.924,121.824 140.732,121.376 C141.544,120.932 142.236,120.416 142.812,119.84 C143.388,119.264 143.868,118.676 144.252,118.08 L144.572,118.08 L145.916,122.56 L149.692,122.56 C149.352,121.368 149.116,120.064 148.988,118.656 C148.86,117.248 148.796,115.76 148.796,114.176 C148.796,112 148.86,109.696 148.988,107.264 C149.116,104.832 149.18,102.336 149.18,99.776 C149.18,98.624 149.064,97.472 148.828,96.32 C148.596,95.168 148.124,94.112 147.42,93.152 C146.716,92.192 145.692,91.416 144.348,90.816 C143.004,90.22 141.224,89.92 139.004,89.92 C136.66,89.92 134.408,90.156 132.252,90.624 C130.1,91.096 128.212,91.82 126.588,92.8 L128.188,96.704 Z M131.58,117.024 C130.516,116.064 129.98,114.84 129.98,113.344 C129.98,112.28 130.268,111.392 130.844,110.688 C131.42,109.984 132.188,109.432 133.148,109.024 C134.108,108.62 135.22,108.34 136.476,108.192 C137.736,108.044 139.028,107.968 140.348,107.968 C140.948,107.968 141.556,107.98 142.172,108 C142.792,108.024 143.4,108.056 143.996,108.096 L143.996,113.408 C143.784,113.964 143.452,114.54 143.004,115.136 C142.556,115.736 141.992,116.28 141.308,116.768 C140.628,117.264 139.816,117.664 138.876,117.984 C137.94,118.304 136.872,118.464 135.676,118.464 C134.012,118.464 132.648,117.984 131.58,117.024 Z M176.316,90.432 C174.78,90.004 173.392,89.792 172.156,89.792 C170.408,89.792 168.968,90.188 167.836,90.976 C166.704,91.768 165.736,92.884 164.924,94.336 L164.668,94.336 L163.708,90.432 L160.124,90.432 L160.124,122.432 L165.244,122.432 L165.244,100.032 C165.5,98.496 166.16,97.228 167.228,96.224 C168.296,95.22 169.744,94.72 171.58,94.72 C172.732,94.72 173.948,94.936 175.228,95.36 L176.316,90.432 Z M180.86,94.912 L185.852,94.912 L185.852,113.6 C185.852,117.056 186.384,119.52 187.452,120.992 C188.52,122.464 190.352,123.2 192.956,123.2 C194.532,123.2 196.008,123.028 197.368,122.688 C198.736,122.348 199.996,121.9 201.148,121.344 L199.996,117.44 C199.056,117.824 198.2,118.136 197.436,118.368 C196.668,118.604 195.728,118.72 194.62,118.72 C193.296,118.72 192.36,118.264 191.804,117.344 C191.248,116.432 190.972,114.86 190.972,112.64 L190.972,94.912 L199.676,94.912 L199.676,90.432 L190.972,90.432 L190.972,82.624 L185.852,84.096 L185.852,90.432 L180.86,90.432 L180.86,94.912 Z M233.852,91.584 C232.484,91.072 230.724,90.624 228.572,90.24 C226.416,89.856 223.972,89.664 221.244,89.664 C216.032,89.664 212.068,91.136 209.34,94.08 C206.608,97.024 205.244,101.356 205.244,107.072 C205.244,112.536 206.256,116.544 208.284,119.104 C210.308,121.664 213.392,122.944 217.532,122.944 C221.328,122.944 223.972,121.944 225.468,119.936 L225.724,119.936 L225.724,121.984 C225.724,124.244 225.196,126.004 224.156,127.264 C223.108,128.524 221.136,129.152 218.236,129.152 C216.316,129.152 214.7,128.96 213.404,128.576 C212.1,128.192 210.96,127.808 209.98,127.428 L208.252,134.016 C209.148,134.484 210.48,134.932 212.252,135.36 C214.02,135.788 216.444,136 219.516,136 C224.036,136 227.556,134.9 230.076,132.704 C232.592,130.504 233.852,127.084 233.852,122.432 L233.852,91.584 Z M215.356,113.856 C214.332,112.236 213.82,109.868 213.82,106.752 C213.82,103.26 214.416,100.704 215.612,99.104 C216.804,97.504 218.468,96.704 220.604,96.704 C222.564,96.704 224.212,96.984 225.532,97.536 L225.532,111.936 C225.06,113.388 224.388,114.476 223.516,115.2 C222.64,115.932 221.392,116.288 219.772,116.288 C217.852,116.288 216.38,115.48 215.356,113.856 Z M261.116,90.432 C259.708,89.964 258.448,89.728 257.34,89.728 C255.676,89.728 254.224,90.156 252.988,91.008 C251.748,91.864 250.768,93.08 250.048,94.656 L249.788,94.656 L248.828,90.432 L242.364,90.432 L242.364,122.432 L250.684,122.432 L250.684,101.764 C251.024,100.524 251.696,99.512 252.7,98.72 C253.696,97.932 254.948,97.536 256.444,97.536 C257.508,97.536 258.7,97.772 260.028,98.24 L261.116,90.432 Z M267.9,98.496 C269.092,97.944 270.62,97.496 272.476,97.152 C274.332,96.812 276.092,96.64 277.756,96.64 C279.972,96.64 281.404,97.164 282.044,98.208 C282.684,99.26 282.852,100.972 282.556,103.36 C279.74,103.232 277.188,103.328 274.908,103.648 C272.624,103.968 270.66,104.544 269.02,105.376 C267.376,106.208 266.116,107.296 265.244,108.64 C264.364,109.984 263.932,111.64 263.932,113.6 C263.932,115.008 264.164,116.28 264.636,117.408 C265.104,118.54 265.764,119.52 266.62,120.352 C267.472,121.184 268.496,121.824 269.692,122.272 C270.884,122.72 272.228,122.944 273.724,122.944 C276.112,122.944 278.064,122.464 279.58,121.504 C281.092,120.544 282.276,119.404 283.132,118.08 L283.452,118.08 L284.796,122.496 L291.58,122.496 C291.068,120.96 290.748,119.328 290.62,117.6 C290.492,115.872 290.436,114.096 290.46,112.26 C290.48,110.428 290.556,108.556 290.684,106.656 C290.812,104.764 290.876,102.872 290.876,100.992 C290.876,99.288 290.692,97.752 290.332,96.384 C289.968,95.02 289.348,93.848 288.476,92.864 C287.6,91.884 286.416,91.124 284.924,90.596 C283.428,90.06 281.572,89.792 279.356,89.792 C276.796,89.792 274.34,90.016 271.996,90.464 C269.648,90.912 267.62,91.52 265.916,92.288 L267.9,98.496 Z M273.564,115.104 C272.86,114.444 272.508,113.516 272.508,112.32 C272.508,111.468 272.784,110.764 273.34,110.208 C273.892,109.656 274.64,109.228 275.58,108.932 C276.516,108.632 277.596,108.436 278.812,108.352 C280.028,108.268 281.296,108.288 282.62,108.416 L282.62,112.576 C282.148,113.432 281.424,114.228 280.444,114.976 C279.46,115.724 278.14,116.096 276.476,116.096 C275.236,116.096 274.268,115.768 273.564,115.104 Z M308.988,90.432 C308.988,89.408 309.052,88.492 309.18,87.68 C309.308,86.872 309.584,86.2 310.012,85.664 C310.436,85.132 311.032,84.728 311.804,84.448 C312.572,84.172 313.572,84.032 314.812,84.032 C316.732,84.032 318.48,84.216 320.06,84.576 C321.636,84.94 322.98,85.42 324.092,86.016 L326.268,79.552 C324.86,78.744 323.012,78.112 320.732,77.664 C318.448,77.216 315.836,76.992 312.892,76.992 C308.924,76.992 305.892,77.92 303.804,79.776 C301.712,81.632 300.668,84.588 300.668,88.64 L300.668,90.432 L296.252,90.432 L296.252,97.472 L300.668,97.472 L300.668,122.432 L308.988,122.432 L308.988,97.472 L318.652,97.472 L318.652,122.432 L326.972,122.432 L326.972,90.432 L308.988,90.432 Z M354.168,122.432 L363.7,122.432 L355.064,107.52 L351.544,105.024 L354.808,102.596 L362.488,90.432 L353.336,90.432 L346.04,103.168 L344.12,104.064 L344.12,77.632 L335.8,77.632 L335.8,122.432 L344.12,122.432 L344.12,109.184 L346.36,109.184 L354.168,122.432 Z" id="Text" fill="#003554"></path>
        <path d="M257.19956,24.1221455 C257.856028,25.7664932 258.244922,27.5299368 258.364,29.372 C258.752,35.428 256.212,42.348 250.652,48.68 C245.092,55.008 230.088,65.276 222.412,67.516 C223.968104,74.4267373 223.652352,77.5039872 222.250482,78.2769553 C223.723274,82.4280614 225.313622,83.5033897 230.364,86.956 C226.768,87.936 224.74,85.44 222.456,85.44 C219.188,85.112 217.296,87.608 214.032,86.956 C218.643158,83.9760225 221.455326,83.0185289 221.52436,78.4759374 C217.287185,78.7131815 207.191843,66.3923337 203,64.404 C196.848,61.488 185.88,54.664 173.372,51.848 C160.868,49.044 152.048,46.88 160.632,46.552 C170.331616,46.1773769 183.96618,40.427833 197.721078,33.9052475 C197.481373,33.5796025 197.204499,33.3284604 196.88,33.22 C194.916,31.752 190.508,34.2 188.056,33.22 C182.176,30.28 186.588,25.38 182.176,22.928 C189.740008,25.5277661 197.415602,25.8483865 205.094282,25.9778079 C203.616169,25.0720965 202.370091,23.9662587 201.248,22.64 C200.82,22.4 202.068,19.168 201.028,18.024 C200.036,15.784 194.984,15.768 193.324,13.716 C189.632,8.28 195.872,6.156 193.22,1.864 C201.408779,11.0219182 212.463234,15.616714 222.328813,22.0621294 C234.138816,16.6164394 243.947221,13.0165926 248.496,15.18 C249.776331,15.7860789 250.933802,16.4913449 251.967694,17.2828325 C252.88135,12.7332611 254.722746,8.01358659 255.844,3.532 C256.496,7.452 255.516,13.66 257.476,16.928 C260.744,22.48 272.176,19.212 278.712,21.828 C273.368083,22.0487329 263.477499,25.0542758 257.19956,24.1221455 Z M249.288,20.504 L245.156,19.52 C252.272,17.856 254.844,28.208 247.88,29.236 C238.788,30.764 242.252,14.8 249.288,20.504 Z M246.228,25.72 C249.128,25.72 249.132,21.22 246.228,21.22 C243.336,21.22 243.332,25.72 246.228,25.72 Z" id="Fill-9" fill="#003554"></path>
    </g>
</svg>
